icons/svg/subway/subway_philadelphia.svg

<?xml version="1.0" encoding="UTF-8" standalone="no"?>
<svg
   xmlns:dc="http://purl.org/dc/elements/1.1/"
   xmlns:cc="http://creativecommons.org/ns#"
   xmlns:rdf="http://www.w3.org/1999/02/22-rdf-syntax-ns#"
   xmlns:svg="http://www.w3.org/2000/svg"
   xmlns="http://www.w3.org/2000/svg"
   xmlns:sodipodi="http://sodipodi.sourceforge.net/DTD/sodipodi-0.dtd"
   xmlns:inkscape="http://www.inkscape.org/namespaces/inkscape"
   width="16"
   height="16"
   id="svg2"
   version="1.1"
   inkscape:version="0.91 r13725"
   sodipodi:docname="subway_philadelphia.svg">
  <defs
     id="defs13">
    <linearGradient
       gradientTransform="matrix(0.08596979,0,0,0.08596979,0.67480439,1.9432845)"
       x1="87.101639"
       y1="121.69753"
       x2="87.260849"
       y2="1.2385538"
       id="l1"
       gradientUnits="userSpaceOnUse">
      <stop
         style="stop-color:#e92203;stop-opacity:1"
         offset="0"
         id="stop5" />
      <stop
         style="stop-color:#ff0000;stop-opacity:0.64628822"
         offset="1"
         id="stop7" />
    </linearGradient>
    <linearGradient
       gradientTransform="matrix(0.08400469,0,0,0.08400469,0.8422306,2.0814238)"
       x1="87.101639"
       y1="121.69753"
       x2="87.260849"
       y2="1.2385538"
       id="l1-2"
       gradientUnits="userSpaceOnUse">
      <stop
         style="stop-color:#e92203;stop-opacity:1"
         offset="0"
         id="stop5-8" />
      <stop
         style="stop-color:#ff0000;stop-opacity:0.64628822"
         offset="1"
         id="stop7-4" />
    </linearGradient>
  </defs>
  <sodipodi:namedview
     pagecolor="#ffffff"
     bordercolor="#666666"
     borderopacity="1"
     objecttolerance="10"
     gridtolerance="10"
     guidetolerance="10"
     inkscape:pageopacity="0"
     inkscape:pageshadow="2"
     inkscape:window-width="1920"
     inkscape:window-height="1006"
     id="namedview11"
     showgrid="true"
     inkscape:zoom="45.254834"
     inkscape:cx="7.6711089"
     inkscape:cy="7.9693276"
     inkscape:window-x="1920"
     inkscape:window-y="0"
     inkscape:window-maximized="1"
     inkscape:current-layer="svg2"
     showguides="false"
     inkscape:snap-global="false">
    <sodipodi:guide
       position="0,0"
       orientation="0,580"
       id="guide2989" />
    <sodipodi:guide
       position="580,0"
       orientation="-580,0"
       id="guide2991" />
    <sodipodi:guide
       position="580,580"
       orientation="0,-580"
       id="guide2993" />
    <sodipodi:guide
       position="0,580"
       orientation="580,0"
       id="guide2995" />
    <sodipodi:guide
       position="0,0"
       orientation="0,580"
       id="guide2997" />
    <sodipodi:guide
       position="580,0"
       orientation="-580,0"
       id="guide2999" />
    <sodipodi:guide
       position="580,580"
       orientation="0,-580"
       id="guide3001" />
    <sodipodi:guide
       position="0,580"
       orientation="580,0"
       id="guide3003" />
    <inkscape:grid
       type="xygrid"
       id="grid3013"
       empspacing="5"
       visible="true"
       enabled="true"
       snapvisiblegridlinesonly="true" />
  </sodipodi:namedview>
  <metadata
     id="metadata2975">image/svg+xmlen<rdf:RDF>
  <cc:Work
     rdf:about="">
    <dc:format>image/svg+xml</dc:format>
    <dc:type
       rdf:resource="http://purl.org/dc/dcmitype/StillImage" />
    <dc:title></dc:title>
  </cc:Work>
</rdf:RDF>
</metadata>
  <path
     sodipodi:type="inkscape:offset"
     inkscape:radius="0.66291261"
     inkscape:original="M 4.3085938 4.5527344 C 3.7454716 4.5527344 3.2929688 5.0071903 3.2929688 5.5703125 L 3.2929688 10.386719 C 3.2929687 10.949841 3.7454716 11.404297 4.3085938 11.404297 L 11.689453 11.404297 C 12.252575 11.404297 12.705078 10.949841 12.705078 10.386719 L 12.705078 5.5703125 C 12.705078 5.0071903 12.252575 4.5527344 11.689453 4.5527344 L 4.3085938 4.5527344 z "
     style="color:#000000;clip-rule:nonzero;display:inline;overflow:visible;visibility:visible;opacity:1;isolation:auto;mix-blend-mode:normal;color-interpolation:sRGB;color-interpolation-filters:linearRGB;solid-color:#000000;solid-opacity:1;fill:#fefefe;fill-opacity:1;fill-rule:nonzero;stroke:none;stroke-width:1;stroke-linecap:butt;stroke-linejoin:miter;stroke-miterlimit:4;stroke-dasharray:none;stroke-dashoffset:0;stroke-opacity:1;marker:none;color-rendering:auto;image-rendering:auto;shape-rendering:auto;text-rendering:auto;enable-background:accumulate;filter-blend-mode:normal;filter-gaussianBlur-deviation:0"
     id="path4504"
     d="m 4.3085938,3.890625 c -0.919782,0 -1.6777344,0.7614383 -1.6777344,1.6796875 l 0,4.8164065 c -2e-7,0.918249 0.7579523,1.679687 1.6777344,1.679687 l 7.3808592,0 c 0.919782,0 1.677735,-0.761438 1.677735,-1.679687 l 0,-4.8164065 c 0,-0.9182493 -0.757953,-1.6796875 -1.677735,-1.6796875 l -7.3808592,0 z" />
  <path
     d="m 11.817196,4.610088 -2.0205059,0 -3.1813194,2.2446415 2.9642227,0 2.3085266,2.2977791 -2.2287104,2.2401754 2.1578064,0 c 0.509563,0 0.881746,-0.504698 0.881746,-0.863282 l 0,-5.0515853 C 12.698942,5.1147659 12.326759,4.610088 11.817196,4.610088 l 0,0 z"
     id="path2578"
     inkscape:connector-curvature="0"
     style="fill:#f14728" />
  <path
     d="m 4.178357,11.392684 2.0160799,0 3.1813393,-2.2357489 -2.9598163,0 -2.3173592,-2.3022056 2.2420294,-2.2446415 -2.1622731,0 c -0.5139895,0 -0.8773193,0.5046779 -0.8773193,0.8721552 l 0,5.0515848 c 1.99e-5,0.354178 0.3633298,0.858856 0.8773193,0.858856 l 0,0 z"
     id="path2580"
     inkscape:connector-curvature="0"
     style="fill:#1f4fa3" />
  <path
     d="m 7.1249137,7.0672202 -0.2836133,0 1.7369128,1.7354374 C 8.6579891,8.8691547 8.71998,8.9488111 8.8573603,8.939978 l 0.2968928,0 L 7.4084674,7.2088874 C 7.3287309,7.120338 7.2711071,7.0672202 7.1249137,7.0672202 l 0,0 z"
     id="path2582"
     inkscape:connector-curvature="0"
     style="fill:#f14728" />
</svg>

<svg width="16" height="16" viewBox="0 0 16 16" fill="none" xmlns="http://www.w3.org/2000/svg">
<path d="M4.30859 3.89062C3.38881 3.89062 2.63086 4.65206 2.63086 5.57031V10.3867C2.63086 11.305 3.38881 12.0664 4.30859 12.0664H11.6895C12.6092 12.0664 13.3672 11.305 13.3672 10.3867V5.57031C13.3672 4.65206 12.6092 3.89062 11.6895 3.89062H4.30859V3.89062Z" fill="#FEFEFE"/>
<path d="M11.8172 4.61008H9.79668L6.61536 6.85472H9.57958L11.8881 9.1525L9.6594 11.3927H11.8172C12.3268 11.3927 12.6989 10.888 12.6989 10.5294V5.47781C12.6989 5.11475 12.3267 4.61008 11.8172 4.61008Z" fill="#F14728"/>
<path d="M4.17834 11.3927H6.19442L9.37576 9.15692H6.41595L4.09859 6.85472L6.34062 4.61008H4.17834C3.66436 4.61008 3.30103 5.11475 3.30103 5.48223V10.5338C3.30105 10.888 3.66436 11.3927 4.17834 11.3927V11.3927Z" fill="#1F4FA3"/>
<path d="M7.12492 7.06723H6.84131L8.57822 8.80267C8.658 8.86916 8.71999 8.94882 8.85737 8.93999H9.15426L7.40848 7.2089C7.32874 7.12035 7.27112 7.06723 7.12492 7.06723Z" fill="#F14728"/>
</svg>
